icons/fill-ele-s-finance-wallet-2.svg

<svg xmlns="http://www.w3.org/2000/svg" width="32px" height="32px" viewBox="0 0 32 32" version="1.1">
    <title>fill-ele-s-finance-wallet-2</title>
    <g id="fill-ele-s-finance-wallet-2" stroke-width="1" fill-rule="evenodd">
        <path d="M28,9 C28.5522847,9 29,9.44771525 29,10 L29,15 L21.5,15 C19.5670034,15 18,16.5670034 18,18.5 C18,20.4329966 19.5670034,22 21.5,22 L29,22 L29,27 C29,27.5522847 28.5522847,28 28,28 L4,28 C3.44771525,28 3,27.5522847 3,27 L3,10 C3,9.44771525 3.44771525,9 4,9 L28,9 Z M22.5,17 C23.3284271,17 24,17.6715729 24,18.5 C24,19.3284271 23.3284271,20 22.5,20 L21.5,20 C20.6715729,20 20,19.3284271 20,18.5 C20,17.6715729 20.6715729,17 21.5,17 L22.5,17 Z M20.5602636,2.14645802 L24.7667825,7.00013365 L11.2,6.99934726 L19.2745756,1.95339025 C19.6922098,1.69236885 20.2377141,1.77428553 20.5602636,2.14645802 Z" id="&#24418;&#29366;" />
    </g>
</svg>

<svg xmlns="http://www.w3.org/2000/svg" viewBox="0 0 32 32"><path fill="currentColor" d="M28 9a1 1 0 0 1 1 1v5h-7.5a3.5 3.5 0 0 0 0 7H29v5a1 1 0 0 1-1 1H4a1 1 0 0 1-1-1V10a1 1 0 0 1 1-1zm-5.5 8a1.5 1.5 0 0 1 0 3h-1a1.5 1.5 0 0 1 0-3zM20.56 2.146 24.767 7H11.2l8.075-5.047a1 1 0 0 1 1.285.193"/></svg>
